svg/fluentui-system-icons/ic_fluent_filmstrip_split_20_regular.svg

<svg width="20" height="20" viewBox="0 0 20 20" fill="none" xmlns="http://www.w3.org/2000/svg">
<path d="M10.5 2.5C10.5 2.22386 10.2761 2 10 2C9.72386 2 9.5 2.22386 9.5 2.5V17.5C9.5 17.7761 9.72386 18 10 18C10.2761 18 10.5 17.7761 10.5 17.5V2.5ZM2 6.5C2 5.11929 3.11929 4 4.5 4H8.5V5H4.5C3.67157 5 3 5.67157 3 6.5V13.5C3 14.3284 3.67157 15 4.5 15H8.5V16H4.5C3.11929 16 2 14.8807 2 13.5V6.5ZM11.5 5V4H15.5C16.8807 4 18 5.11929 18 6.5V13.5C18 14.8807 16.8807 16 15.5 16H11.5V15H15.5C16.3284 15 17 14.3284 17 13.5V6.5C17 5.67157 16.3284 5 15.5 5H11.5ZM15 6.5C15 6.22386 15.2239 6 15.5 6C15.7761 6 16 6.22386 16 6.5V7.5C16 7.77614 15.7761 8 15.5 8C15.2239 8 15 7.77614 15 7.5V6.5ZM15.5 12C15.2239 12 15 12.2239 15 12.5V13.5C15 13.7761 15.2239 14 15.5 14C15.7761 14 16 13.7761 16 13.5V12.5C16 12.2239 15.7761 12 15.5 12ZM15 9.5C15 9.22386 15.2239 9 15.5 9C15.7761 9 16 9.22386 16 9.5V10.5C16 10.7761 15.7761 11 15.5 11C15.2239 11 15 10.7761 15 10.5V9.5ZM4.5 6C4.22386 6 4 6.22386 4 6.5V7.5C4 7.77614 4.22386 8 4.5 8C4.77614 8 5 7.77614 5 7.5V6.5C5 6.22386 4.77614 6 4.5 6ZM4 12.5C4 12.2239 4.22386 12 4.5 12C4.77614 12 5 12.2239 5 12.5V13.5C5 13.7761 4.77614 14 4.5 14C4.22386 14 4 13.7761 4 13.5V12.5ZM4.5 9C4.22386 9 4 9.22386 4 9.5V10.5C4 10.7761 4.22386 11 4.5 11C4.77614 11 5 10.7761 5 10.5V9.5C5 9.22386 4.77614 9 4.5 9Z" fill="#212121"/>
</svg>

<svg xmlns="http://www.w3.org/2000/svg" width="20" height="20"><path d="M10.5 2.5a.5.5 0 0 0-1 0v15a.5.5 0 0 0 1 0v-15ZM2 6.5A2.5 2.5 0 0 1 4.5 4h4v1h-4A1.5 1.5 0 0 0 3 6.5v7A1.5 1.5 0 0 0 4.5 15h4v1h-4A2.5 2.5 0 0 1 2 13.5v-7ZM11.5 5V4h4A2.5 2.5 0 0 1 18 6.5v7a2.5 2.5 0 0 1-2.5 2.5h-4v-1h4a1.5 1.5 0 0 0 1.5-1.5v-7A1.5 1.5 0 0 0 15.5 5h-4ZM15 6.5a.5.5 0 0 1 1 0v1a.5.5 0 0 1-1 0v-1Zm.5 5.5a.5.5 0 0 0-.5.5v1a.5.5 0 0 0 1 0v-1a.5.5 0 0 0-.5-.5ZM15 9.5a.5.5 0 0 1 1 0v1a.5.5 0 0 1-1 0v-1ZM4.5 6a.5.5 0 0 0-.5.5v1a.5.5 0 0 0 1 0v-1a.5.5 0 0 0-.5-.5ZM4 12.5a.5.5 0 0 1 1 0v1a.5.5 0 0 1-1 0v-1ZM4.5 9a.5.5 0 0 0-.5.5v1a.5.5 0 0 0 1 0v-1a.5.5 0 0 0-.5-.5Z"/></svg>
